build/assets/adv-icon-2.svg

<svg width="84" height="84" viewBox="0 0 84 84" fill="none" xmlns="http://www.w3.org/2000/svg">
<path d="M41.7585 7.20301C42.1919 6.66065 42.7286 6.20965 43.3376 5.87611C43.9465 5.54257 44.6155 5.33312 45.3059 5.25988C45.9963 5.18665 46.6944 5.25107 47.3597 5.44943C48.025 5.6478 48.6444 5.97616 49.182 6.41551L66.3075 20.4015C67.2493 21.1705 67.895 22.2425 68.1344 23.4346C68.3737 24.6266 68.1919 25.8648 67.62 26.9378C66.1227 26.4802 64.5656 26.2484 63 26.25H61.425L62.9895 24.465L53.97 17.0993L46.5308 26.2553H39.7635L49.9012 13.7813L45.8587 10.479L33.2692 26.25H26.5493L41.7585 7.20301ZM55.125 52.5C54.4288 52.5 53.7611 52.7766 53.2688 53.2688C52.7766 53.7611 52.5 54.4288 52.5 55.125C52.5 55.8212 52.7766 56.4889 53.2688 56.9812C53.7611 57.4734 54.4288 57.75 55.125 57.75H60.375C61.0712 57.75 61.7389 57.4734 62.2312 56.9812C62.7234 56.4889 63 55.8212 63 55.125C63 54.4288 62.7234 53.7611 62.2312 53.2688C61.7389 52.7766 61.0712 52.5 60.375 52.5H55.125ZM15.75 28.875C15.75 28.1788 16.0266 27.5111 16.5188 27.0189C17.0111 26.5266 17.6788 26.25 18.375 26.25H21.3045L25.4783 21H18.375C16.2864 21 14.2834 21.8297 12.8065 23.3065C11.3297 24.7834 10.5 26.7864 10.5 28.875V60.375C10.5 63.856 11.8828 67.1944 14.3442 69.6558C16.8056 72.1172 20.144 73.5 23.625 73.5H63C65.7848 73.5 68.4555 72.3938 70.4246 70.4246C72.3937 68.4555 73.5 65.7848 73.5 63V42C73.5 39.2152 72.3937 36.5445 70.4246 34.5754C68.4555 32.6063 65.7848 31.5 63 31.5H18.375C17.6788 31.5 17.0111 31.2234 16.5188 30.7312C16.0266 30.2389 15.75 29.5712 15.75 28.875ZM15.75 60.375V36.3038C16.569 36.5925 17.4563 36.75 18.375 36.75H63C64.3924 36.75 65.7277 37.3031 66.7123 38.2877C67.6969 39.2723 68.25 40.6076 68.25 42V63C68.25 64.3924 67.6969 65.7277 66.7123 66.7123C65.7277 67.6969 64.3924 68.25 63 68.25H23.625C21.5364 68.25 19.5334 67.4203 18.0565 65.9435C16.5797 64.4666 15.75 62.4636 15.75 60.375Z" fill="url(#paint0_linear_14_216)"/>
<defs>
<linearGradient id="paint0_linear_14_216" x1="10.5" y1="39.3653" x2="73.5" y2="39.3653" gradientUnits="userSpaceOnUse">
<stop stop-color="#2AF598"/>
<stop offset="1" stop-color="#009EFD"/>
</linearGradient>
</defs>
</svg>

<svg xmlns="http://www.w3.org/2000/svg" width="84" height="84" fill="none"><path fill="url(#a)" d="M41.758 7.203a5.249 5.249 0 0 1 7.424-.787L66.308 20.4a5.25 5.25 0 0 1 1.312 6.537A15.752 15.752 0 0 0 63 26.25h-1.575l1.565-1.785-9.02-7.366-7.44 9.156h-6.767l10.138-12.474-4.042-3.302-12.59 15.771h-6.72L41.76 7.203ZM55.126 52.5a2.625 2.625 0 0 0 0 5.25h5.25a2.625 2.625 0 0 0 0-5.25h-5.25ZM15.75 28.875a2.625 2.625 0 0 1 2.625-2.625h2.93L25.477 21h-7.103a7.875 7.875 0 0 0-7.875 7.875v31.5A13.125 13.125 0 0 0 23.625 73.5H63A10.5 10.5 0 0 0 73.5 63V42A10.5 10.5 0 0 0 63 31.5H18.375a2.625 2.625 0 0 1-2.625-2.625Zm0 31.5V36.304a7.898 7.898 0 0 0 2.625.446H63A5.25 5.25 0 0 1 68.25 42v21A5.25 5.25 0 0 1 63 68.25H23.625a7.875 7.875 0 0 1-7.875-7.875Z"/><defs><linearGradient id="a" x1="10.5" x2="73.5" y1="39.365" y2="39.365" gradientUnits="userSpaceOnUse"><stop stop-color="#2AF598"/><stop offset="1" stop-color="#009EFD"/></linearGradient></defs></svg>
